!!!COM: Corelli, Arcangelo
!!!OPR: Sonata da camera
!!!OPS: 4
!!!ONM: 11
!!!OMV: 1
!!!OTL: Preludio
!!!OMD: Largo
**kern	**fb	**kern	**kern	**kern
*part4	*part4	*part3	*part2	*part1
*staff4	*	*staff3	*staff2	*staff1
*I"Organo	*	*I"Violone	*I"Violino II	*I"Violino I
*clefF4	*	*clefF4	*clefG2	*clefG2
*k[b-e-]	*	*k[b-e-]	*k[b-e-]	*k[b-e-]
*g:	*	*g:	*g:	*g:
*M4/4	*	*M4/4	*M4/4	*M4/4
*met(c)	*	*met(c)	*met(c)	*met(c)
=1	=1	=1	=1	=1
4C	.	4C	4ee-	4.gg
8r	.	8r	8r	.
8c	.	8c	8ee-	8gg
8BnL	6	8BnL	8ddL	8ggL
8c	.	8c	8ee-	8gg
8G	n	8G	8bn	8gg
8cJ	.	8cJ	8ee-J	8ggJ
=	=	=	=	=
4Bn	6	4Bn	4dd	4gg
8r	.	8r	8r	8r
8c	-6	8c	8ee-	4aa-X
8B-XL	-7	8B-XL	4dd	.
8E-	7	8E-	.	4gg
8A-X	7	8A-X	4cc	.
8DJ	7	8DJ	.	[8ff
=	=	=	=	=
8GL	7	8GL	4b-	8ff]
8C	7	8C	.	4ee-
8F	7 -	8F	4a-X	.
8BB-J	7	8BB-J	.	4dd
8E-L	7	8E-L	4g	.
8AA-X	7	8AA-X	.	4cc
8D	7	8D	4f	.
8GGJ	7 n	8GGJ	.	8bn
=	=	=	=	=
8CL	.	8CL	8e-	4cc
8E-	6	8E-	4cc	.
8F	6 5	8F	.	4dd
8GJ	n	8GJ	8bn	.
8CL	.	8CL	8ccL	8ee-
8BB-J	6	8BB-J	8ddJ	4gg
4AA-X	7	4AA-X	4cc	.
.	6	.	.	8ff
=	=	=	=	=
2GG	n	2GG	2bn	2gg
2r;	.	2r;	2r;	2r;
=	=	=	=	=
4E-	.	4E-	4gg	4.bb-
8r	.	8r	8r	.
8e-	.	8e-	8gg	8bb-
8dL	6	8dL	8ffL	8bb-L
8e-	.	8e-	8gg	8bb-
8B-	.	8B-	8dd	8bb-
8e-J	.	8e-J	8ggJ	8bb-J
=	=	=	=	=
4d	6	4d	4ff	4bb-
8r	.	8r	8r	8r
8e-	6	8e-	8gg	4ccc
8dL	7	8dL	4ff	.
8G	7	8G	.	4bb-
8c	7	8c	4ee-	.
8FJ	7 -	8FJ	.	[8aa-X
=	=	=	=	=
8B-L	-7	8B-L	4dd	8aa-]
8E-	7	8E-	.	4gg
8A-X	7	8A-X	4cc	.
8DJ	7	8DJ	.	4ff
8GL	7	8GL	4b-	.
8C	7	8C	.	4ee-
8F	7 -	8F	4a-X	.
8BB-J	-7	8BB-J	.	8dd
=	=	=	=	=
8E-L	.	8E-L	4g	8ee-L
8G	6	8G	.	8b-
8A-X	.	8A-X	8r	8ccJ
8AA-XJ	.	8AA-XJ	8cc	4a-X
8BB-L	-7	8BB-L	8d	.
8C	5	8C	4e-	8g
8AA-	6	8AA-	.	4f
8BB-J	5	8BB-J	8d	.
=	=	=	=	=
8EE-L	5	8EE-L	4e-	8g
8E-	6	8E-	.	4cc
8F	6 5	8F	4.dd	.
8GJ	n	8GJ	.	8bn
8C	9	8C	.	4ee-
4c	8	4c	8ccL	.
.	4 2	.	8ff	4dd
8Bn	5	8Bn	8ddJ	.
=	=	=	=	=
4e-	7	4e-	4g	8r
.	6	.	.	4gg
4d	4	4d	4.aa	.
.	#	.	.	8ff#X
8r	.	8r	.	4bb-Xi
4G	3	4G	8ggL	.
.	4 2	.	8ccc	4aa
8F#X	5	8F#X	8aaJ	.
=	=	=	=	=
4B-	7	4B-	4dd	8r
.	6	.	.	4ddd
4c	9 n	4c	4een	.
.	8	.	.	4ccc
8dL	7 #	8dL	8ff#X	.
8G	.	8G	4gg	8bb-
8C	#6\ 5	8C	.	4aa
8DJ	#	8DJ	8ff#	.
=	=	=	=	=
4.G	5	4.G	4gg	8ggL
.	.	.	.	8aaJ
.	.	.	8r	4.bb-
8F	4 2	8F	8gg	.
8EnL	6 5	8EnL	8cc	.
8F	-	8F	4ffni	8aa-X
8BB-	6 5 -	8BB-	.	4gg
8CJ	n	8CJ	8een	.
=	=	=	=	=
4.F	-	4.F	4ff	8aa-XL
.	.	.	.	8ffJ
.	.	.	8r	4.aa-
8E-Xi	-4 2	8E-Xi	8ff	.
8DL	6 -r5	8DL	8b-	.
8E-	.	8E-	4ee-Xi	8gg
8AA-X	6 5	8AA-X	.	4ff
8BB-J	.	8BB-J	8dd	.
=	=	=	=	=
8EE-L	.	8EE-L	8ee-L	8gg
8E-	.	8E-	8ggJ	4ee-
8AAni	6 5	8AAni	4ff	.
8BBnJ	5	8BBnJ	.	4dd
8CL	9	8CL	4ee-	.
8E-	6	8E-	.	4cc
8F	6 5	8F	4dd	.
8GJ	.	8GJ	.	[8b-
=	=	=	=	=
8A-XL	9	8A-XL	4cc	8b-]
8C	-6	8C	.	4a-X
8D	6 5	8D	4b-	.
8EnJ	5	8EnJ	.	4g
8FL	9 -	8FL	4a-X	.
8AA-X	6	8AA-X	.	4f
8BB-Xi	6 5 -	8BB-Xi	4g	.
8CJ	n	8CJ	.	8en
=	=	=	=	=
8FFL	-	8FFL	4f	8fL
8F	.	8F	.	8cc
8G	#6\	8G	8r	8en
8A-XJ	6	8A-XJ	8cc	8fJ
8GL	#6\	8GL	8enL	8r
8F	-	8F	8fJ	8ccL
8G	#6\	8G	8r	8e
8A-J	6	8A-J	8cc	8fJ
=	=	=	=	=
8GL	#6\	8GL	4en	8r
8C	n	8C	.	8ggL
8D	#6\	8D	8r	8bn
8E-J	6	8E-J	8gg	8ccJ
8DL	#6\	8DL	8bnL	8r
8C	-	8C	8ccJ	8ggL
8D	#6\	8D	8r	8b
8E-J	6	8E-J	8gg	8ccJ
=	=	=	=	=
8DL	#6\	8DL	8bnL	8r
8E-	6	8E-	8ccJ	8ggL
8F	-	8F	8r	8aa-X
8GJ	n	8GJ	8b	8ggJ
8A-XL	6	8A-XL	8ccL	8r
8G	6	8G	8b-XJ	8ee-L
8A-	6	8A-	8r	8ff
8GJ	6	8GJ	8b-	8ee-J
=	=	=	=	=
8FL	6 -	8FL	8a-XL	8r
8E-	6	8E-	8gJ	8ccL
8F	6 -	8F	8r	8dd
8E-J	6	8E-J	8g	8ccJ
8DL	#6\	8DL	8fL	8r
8E-	6	8E-	8e-J	8ggL
8F	-	8F	8r	8aa-X
8A-XJ	6	8A-XJ	8cc	[8ffJ
=	=	=	=	=
8GL	7 n	8GL	8bn	8ffL]
8C	.	8C	4cc	8ee-J
8G	5 4	8G	.	4dd
8GGJ	n	8GGJ	8b	.
8CL	.	8CL	[2cc	[2cc
8F	-	8F	.	.
8En	6	8En	.	.
8CJ	.	8CJ	.	.
=	=	=	=	=
8FFL	-	8FFL	1cc]	1cc]
8F	.	8F	.	.
8En	6	8En	.	.
8CJ	.	8CJ	.	.
8FL	-	8FL	.	.
8G	.	8G	.	.
8A-X	.	8A-X	.	.
8FJ	.	8FJ	.	.
=	=	=	=	=
4D	#6\	4D	4bn	4f
4C	.	4C	2cc	4e-
2GG	5 4	2GG	.	2d
.	n	.	4b	.
=	=	=	=	=
1C;	.	1C;	1cc;	1c;
==	==	==	==	==
*-	*-	*-	*-	*-
!!!system-decoration: [{s1,s2},s3,s4]
!!!YEM: CC BY-NC-SA 4.0; CCARH; DCML
!!!RDF**kern: i = editorial accidental